X: 03070
T: QUEEN ELIZABETH
C: Bob McQuillen 9 Jan 78
B: Bob's Note Book 03 #70
%R: reel, march
%D:1978
Z: 2020 John Chambers <jc:trillian.mit.edu>
M: C
L: 1/8
K: Am
E2 \
| "Am"E2AB c3d | edcB A2E2 | A2AB c2e2 | c4 "G"B2D2 |\
| "Am"E2AB c2d2 | edce "Dm"d2ef | "Am"e2dc "E7"B2e2 | "Am"A6 :|
|: ef \
| "C"gfec "G"d2cd | "Am"edcA "G"B2G2 | "Am"ABcd e2g2 | "Dm"f4 "Am"e2ef |\
| "C"gfec "G"d2cd | "Am"edcA "G"B2G2 | "Am"A2Bc "G"B2G2 | "Am"A6 :|
%%begintext align
%% I hope Earl Gaddis likes
%% this tune as much as I
%% like his fiddle playing.
%%endtext

%%sep 1 1 500

%%sep 1 1 500

